build/img/icon-quotes-nverted.svg

<svg width="31" height="22" fill="none" xmlns="http://www.w3.org/2000/svg"><path opacity=".05" d="M17.526 21.722v-8.91c0-4.224 1.012-7.304 3.036-9.24C22.63 1.592 25.688.558 29.736.47l.858 4.158c-4.664.484-6.82 2.662-6.468 6.534h4.092v10.56H17.526zm-16.764 0v-8.91c0-4.224 1.012-7.304 3.036-9.24C5.866 1.592 8.924.558 12.972.47l.858 4.158c-4.664.484-6.82 2.662-6.468 6.534h4.092v10.56H.762z" fill="#2D383F"/></svg>

<svg width="31" height="22" viewBox="0 0 31 22" fill="none" xmlns="http://www.w3.org/2000/svg">
<path opacity="0.05" d="M17.526 21.722V12.812C17.526 8.588 18.538 5.508 20.562 3.572C22.63 1.592 25.688 0.557999 29.736 0.469997L30.594 4.628C25.93 5.112 23.774 7.29 24.126 11.162H28.218V21.722H17.526ZM0.762 21.722V12.812C0.762 8.588 1.774 5.508 3.798 3.572C5.866 1.592 8.924 0.557999 12.972 0.469997L13.83 4.628C9.166 5.112 7.01 7.29 7.362 11.162H11.454V21.722H0.762Z" fill="#2D383F"/>
</svg>
